X: 3429
T: Best Of 17, The
R: reel
M: 4/4
K: Amajor
|:A2 eA gaAc|cAeA gacB|A2 eA gaea|faea faec|
A2 eA gaAc|cAeA gacB|A2 eA gaea|faea fecB:|
|:cAAD AAec|ABBA Beed|cAAD AAec|ABBA B2 ed|
[1 cAAD AAec|ABBA Beed|eAfa eAce|dBfa gedB:|
[2 cAAD AAeA|AeeA fAAg|aefa eAce|dfed cegB||

